X:1
T:Quasi adagio
T:Round Dance
T:Béla Bartók Revised and Arranged by the Composer, January 1945 
T:Book 1 (after Hungarian Folksongs)
T:For Children Nr 17, Sz 42
C:Bela bartok
%%score { ( 1 3 ) | ( 2 4 ) }
L:1/8
Q:1/4=70
M:4/4
K:G
V:1 treble nm="Piano"
V:3 treble 
V:2 bass 
V:4 bass 
V:1
"^Lento,"!p!!<(! (!1!E2 !4!B)!4!B (!3!B2 A2)!<)! |!>(! (B2 !1!G)!3!G (F2!>)! E2) | %2
!<(! (!1!E2 !4!B)!4!B (!3!B2!<)! A2) |!>(! (B2 !1!G)!3!G (F2 E2)!>)! |!<(! (EFG)G (AGFG)!<)! | %5
!>(! !tenuto!!2!F2 !tenuto!!2!F2 !tenuto!!2!F2 !tenuto!!2!F2!>)! |!<(! (EFG)G (AGFG)!<)! | %7
 !tenuto!!1!E2 !tenuto!!1!E2 !tenuto!!1!E2 !tenuto!!1!E2 | z4!pp! !tenuto!!3
2
!E2 !tenuto!G2 | %9
 E8 |!p!!<(! (!2!E2 !5!B)!4!B (!3!B2 A2)!<)! |!>(! (B2 !1!G)!4!G (!1!F2!>)! E2) | %12
!<(! (!1!E2 !4!B)!4!B (!3!B2!<)! A2) |!>(! (B2 G)!4!G (!3
1
!F2!>)! E2) | %14
!<(! (!1!EFG)G (AGFG)!<)! |!>(! !tenuto!F2 !tenuto!F2 !tenuto!F2 !tenuto!F2!>)! | %16
!<(! (EFG)G (AGFG)!<)! |!>(! !tenuto!E2 D2 C2 B,2!>)! |] %18
V:2
!ped! (!2
5
![E,,B,,]4!ped-up! !1
3
4
![E,F,C]4) | %1
!ped! (!2
5
![E,,B,,]4!ped-up! !1
2
4
![E,G,C]4) | %2
!ped! (!2
5
![E,,B,,]4!ped-up! !1
3
4
![E,F,C]4) | %3
!ped! (!2
5
![E,,B,,]4!ped-up! !1
3
4
![E,G,C]4) | %4
!ped! (!2
5
![E,,B,,]4!ped-up! !2
3
5
![E,A,^C]4) | %5
!ped! (!2
5
![E,,B,,]4!ped-up! !2
3
5
![E,^A,^C]4) | %6
!ped! (!2
5
![E,,B,,]4!ped-up! !1
3
4
![E,F,=C]4) | z4 z2!mf! !tenuto!!2!^A,,2 | %8
!>(! !tenuto!!2!^A,,2 !tenuto!!2!A,,2!>)! !tenuto!A,,4- | A,,2 z2 z4 | %10
!ped! (!2
5
![E,,B,,]4!ped-up! !1
3
4
![E,F,C]4) | z4 G,4 | (G,4 F,4) | z4 !1
5
!C,4 | E6- B,2 | %15
 E2 (^A,2 ^D2) =A,2 | z2 (E,2 =F,2) A,2 | %17
 !tenuto!!5!E,,2 !tenuto!!1
5
!E,,2 !tenuto!!1
5
!E,,2 !tenuto!!2
5
!E,,2 |] %18
V:3
 x8 | x8 | x8 | x8 | x8 | x8 | x8 | x8 | x4 !tenuto!^D2 !tenuto!D2 | (^D6 ^C2) | x8 | z4 B,4 | x8 | %13
 z4 C4 | x8 | x8 | x8 | x2 !tenuto!!4
3
!E2 !tenuto!!4
2
!E2 !tenuto!!4
1
!E2 |] %18
V:4
 x8 | x8 | x8 | x8 | x8 | x8 | x8 | x8 | x8 | x8 | x8 | (!5!B,,2 ^C,2 ^D,2 E,2) | !1
2
5
![=D,C]8 | %13
 (D,2 E,2 A,2 G,2) | (!1
2
!C4 x4 | ^A,2) (!3
5
!F,2 !1
2
!B,2) !1
3
5
![B,,^D,]2 | %16
 x2 (!2
5
!C,B,, !1
5
!A,,2) !1
3
5
![B,,^D,]2 | z2 !tenuto!D,2 !tenuto!C,2 !tenuto!B,,2 |] %18

